!!!OTL: A bhean úd thíos ae bhruach an t-sruth&szlig;in, S. 18
!!!id: I0531
**kern
*clefG2
*k[b-e-a-]
*E-:
{8d
=1
8d
8e-
8f
16g
16a-
=2
8b-
8g
8a-
8f
=3
8g
8a-
4f
=4
8g
8a-
8.f}
=5
{16e-
=6
8d
8e-
8f
16g
16a-
=7
8b-
8g
8a-
8f
=8
8d
8f
4e-
=9
8d
8f
8.e-}
=10
{16e-
=11
8d
8e-
8f
16g
16a-
=12
16b-
16b-
16a-
16g
8a-
8f
=13
8g
16b-
16a-
4f
=14
8g
16b-
16a-
8f}
=15
{8e-
=16
16d
16d
8e-
8f
16g
16a-
=17
8b-
16a-
16g
8a-
8f
=18
8d
8f
4e-
=19
8d
8f
4e-}
=20
{8d
8e-
8f
16g
16a-
=21
8b-
8b-
8a-
8f
=22
8g
8a-
4f
=23
8g
8a-
4f}
=24
{8d
8e-
8f
16g
16a-
=25
8b-
8b-
8a-
8f
=26
8d
8f
4e-
=27
8d
8f
8e-}
==
*-
!!!minrhy: 16
!!!meters: 2/4 ]  ZZ[6
!!!cut: A bhean úd thíos ae bhruach an t-sruth&szlig;in, S. 18
!!!reg: Irland
!!!trd: O'SULLIVAN, Donal: Song of the Irish
!!!rhy1: X_  X_X_X_XX  X_X_X_X_  X_X_X__  X_X_X_.
!!!rhy2: X  X_X_X_XX  X_X_X_X_  X_X_X__  X_X_X_.
!!!key: I0531  16 Eb 2/4 ]  ZZ[6
!!!mod: SECHSTONSKALA DUR ?]  AMBITUS[6b
!!!kad: 212121
!!!akz: -7533_-75-7-7_-7533_-75-7-7_-7533_-75-7-7_
!!!fot: 'a__b__av_bv_av_bv_
!!!for: 'a__av_b__c__av_av_
!!!fok: '^a_^__$a_^__Ma_^a_
!! PHRAS[VORWIEGEND AUFTAKTIG]
!!!fkt: Schlaflied
!! IRISCHE V
!! PR[14] 2K[0] 2G[10] 3K[5] 3G[8] 4A[9] 4Ü[0] 5A[1] 6K[0] 6G[3]
!! 7K[0] 7G[0] 8A[0] MEHR[0] SI[36] ABS[78] SR[10] SP[26]
!! ST[8] 2k[1] 2g[26] 3k[10] 3g[8] 4d[3] 4ü[0] 5d[1] 6k[1] 6g[0]
!! 7k[0] 7g[0] 8d[0] mehr[0] si[50] dm[-14] sr[27] sp[23]
!! 1F[24] 2F[70] 3F[0] 4F[0] LF[0] 2P[6] 3P[0] 4P[0] TRI[0] DF[3] AB[79]
!! TF[0] U3K[0] U3[0] U4[0] U4Ü[0] U5[0] U6K[0] U6[0] U7K[0] U7[4]
!! N1[18] N2K[0] N2[20] N3K[0] N3[23] N4[9] N4Ü[0] N5[15] N6K[0] N6[3]
!!!n7k: 0] N7[3] O1[5] O2K[0] O2[1] O3K[0] O3[0] HÖ[0
!!!RNB: symbol: &szlig; = sz ligature (UTF-8: ÃŸ)
